X: 1
T:Ben Butler's -- Reel
M:2/4
L:1/16
R:reel
B:Ryan's Mammoth Collection
N:387
Z:Contributed by Ray Davies,  ray:davies99.freeserve.co.uk
K:Bb
u((3FGA)|\
BFdB AFec | BFdB gfec | BFdB AFec | AFGA B2:|
|:d2|\
cBAG FAce | dBfd bfed | cBAG FAce | decA B2:|
|:ff|\
=egBg egBg | fcaf bagf | =egBg egBg | fag=e f2:|
|:f2|\
fecA FECE | DFBd fdbf | fecA FECE | DBAc B2 H:|
